X: 18865
T: In Flight
R: reel
M: 4/4
K: Gmajor
|:G3 A GABc|dDGc B~G3|dedB G2 cd|BdGB AGAB|
G3 A GABc|dGBG A~G3|cBGc BGcG|1 dGBG AGAB:|2 dGBG AGEF||
G2 ED G2 ED|FGED GDEF|G~D3 GDAD|BDAD GDEF|
G2 ED G2 ED|FGED GDEF|G~D3 GDAD|ABdB AGEF|
G2 ED G2 ED|FGED GDEF|G~D3 GDAD|BDAD GDEG|
A4 AGAB|A~G3 AGAB|cdcA BcBG|AdBG AGAB||

